packages/kaspersky-hexa-ui-icons/src/iconsSVGs/64x42/FlagPh.svg

<svg width="64" height="42" viewBox="0 0 64 42" fill="none" xmlns="http://www.w3.org/2000/svg">
<g clip-path="url(#clip0_37941_2328)">
<rect width="64" height="42" rx="5" fill="white"/>
<rect x="0.5" y="0.5" width="63" height="41" rx="4.5" stroke="#F5F5F5"/>
<path fill-rule="evenodd" clip-rule="evenodd" d="M0 42V42.0098H64V21.0098H27.9869L0 42Z" fill="#DD1C34"/>
<path fill-rule="evenodd" clip-rule="evenodd" d="M64 21.0098H27.9869L28 21L0 0.00976562H64V21.0098Z" fill="#0D4BC3"/>
<path fill-rule="evenodd" clip-rule="evenodd" d="M5.60007 6.99997C5.60007 7.77317 4.97326 8.39997 4.20007 8.39997C3.42687 8.39997 2.80007 7.77317 2.80007 6.99997C2.80007 6.22678 3.42687 5.59998 4.20007 5.59998C4.97326 5.59998 5.60007 6.22678 5.60007 6.99997ZM22.4 20.9998C22.4 21.773 21.7732 22.3998 21 22.3998C20.2268 22.3998 19.6 21.773 19.6 20.9998C19.6 20.2266 20.2268 19.5998 21 19.5998C21.7732 19.5998 22.4 20.2266 22.4 20.9998ZM4.20005 36.4C4.97325 36.4 5.60005 35.7732 5.60005 35C5.60005 34.2268 4.97325 33.6 4.20005 33.6C3.42685 33.6 2.80005 34.2268 2.80005 35C2.80005 35.7732 3.42685 36.4 4.20005 36.4ZM9.51744 23.7858L7.12126 27.4671L8.03001 23.1695C7.88381 23.0501 7.74991 22.9162 7.63049 22.77L3.33289 23.6787L7.0142 21.2825C7.00488 21.1896 7.00011 21.0953 7.00011 20.9999C7.00011 20.9045 7.00488 20.8102 7.01419 20.7173L3.33289 18.3212L7.6304 19.2299C7.74984 19.0837 7.88376 18.9497 8.02999 18.8303L7.12126 14.5328L9.51736 18.214C9.61035 18.2046 9.70467 18.1999 9.80011 18.1999C9.8955 18.1999 9.98978 18.2046 10.0827 18.214L12.4788 14.5328L11.5701 18.8302C11.7164 18.9496 11.8503 19.0836 11.9698 19.2299L16.2672 18.3212L12.586 20.7172C12.5953 20.8102 12.6001 20.9045 12.6001 20.9999C12.6001 21.0953 12.5953 21.1896 12.586 21.2826L16.2672 23.6787L11.9697 22.77C11.8503 22.9162 11.7163 23.0501 11.5701 23.1696L12.4788 27.4671L10.0826 23.7858C9.98973 23.7951 9.89548 23.7999 9.80011 23.7999C9.7047 23.7999 9.6104 23.7951 9.51744 23.7858Z" fill="#FDD64D"/>
</g>
<defs>
<clipPath id="clip0_37941_2328">
<rect width="64" height="42" rx="5" fill="white"/>
</clipPath>
</defs>
</svg>

<svg xmlns="http://www.w3.org/2000/svg" width="64" height="42" fill="none" viewBox="0 0 64 42"><g clip-path="url(#a)"><rect width="64" height="42" fill="#fff" rx="5"/><rect width="63" height="41" x="1" y="1" stroke="#f5f5f5" rx="5"/><path fill="#dd1c34" fill-rule="evenodd" d="M0 42v.0098h64v-21H27.9869z" clip-rule="evenodd"/><path fill="#0d4bc3" fill-rule="evenodd" d="M64 21.0098H27.9869L28 21 0 .0098h64z" clip-rule="evenodd"/><path fill="#fdd64d" fill-rule="evenodd" d="M5.6 7c0 .7732-.6267 1.4-1.4 1.4-.7731 0-1.4-.6268-1.4-1.4s.6269-1.4 1.4-1.4c.7733 0 1.4.6268 1.4 1.4m16.8 13.9998c0 .7732-.6268 1.4-1.4 1.4s-1.4-.6268-1.4-1.4.6268-1.4 1.4-1.4 1.4.6268 1.4 1.4M4.2 36.4c.7733 0 1.4-.6268 1.4-1.4s-.6267-1.4-1.4-1.4-1.4.6268-1.4 1.4.6269 1.4 1.4 1.4m5.3174-12.6142-2.3961 3.6813.9087-4.2976a2.8 2.8 0 0 1-.3995-.3995l-4.2976.9087 3.6813-2.3962a2.83 2.83 0 0 1 0-.5652l-3.6813-2.3961 4.2975.9087a2.8 2.8 0 0 1 .3996-.3996l-.9087-4.2975 2.396 3.6812a2.8 2.8 0 0 1 .2828-.0141q.1432 0 .2826.0141l2.3961-3.6812-.9087 4.2974a2.8 2.8 0 0 1 .3997.3997l4.2974-.9087-3.6812 2.396a2.84 2.84 0 0 1 0 .5654l3.6812 2.3961-4.2975-.9087a2.82 2.82 0 0 1-.3996.3996l.9087 4.2975-2.3962-3.6813a2.84 2.84 0 0 1-.5652 0" clip-rule="evenodd"/></g><defs><clipPath id="a"><rect width="64" height="42" fill="#fff" rx="5"/></clipPath></defs></svg>
